X: 50
T: Polonäs efter Abraham Hagholm (nr 50) 
T: Wärmelänning
S: efter Abraham Hagholm
R: Polonäs
O: Östergötland
B: Abraham Hagholms notbok, nr 50
B: http://www.smus.se/earkiv/fmk/browselarge.php?lang=sw&katalogid=M+26&bildnr=00013
Z: Nils L
M: 3/4
L: 1/16
K: G
d2B2 G2AB c2AB | G2F2 G2AB G2AF | D2>F2 G2>B2 d2>g2 | e2ce e2d2 d4 ::
G2B2 d2ef g4 | d2c2 B2Ac e4 | d2B2 G2AB c2AB | G2F2 G2AB G2AF |
G2B2 d2ef g4 | d2c2 B2Ac e4 | d2B2 G2AB c2AB | G2AF G8 :|

